pic/feedback-light.svg

<svg xmlns="http://www.w3.org/2000/svg" width="144" height="28" viewBox="0 0 144 28">
  <g fill="none" fill-rule="evenodd">
    <rect width="144" height="28" fill="#303438" rx="8"/>
    <path fill="#E0E4E8" fill-rule="nonzero" d="M32.03,20.26 C33.402,18.244 33.738,15.108 33.78,12.784 L34.452,12.784 C35.054,14.464 35.852,15.878 36.902,17.012 C35.824,17.754 34.55,18.3 33.178,18.636 C33.514,19.014 33.934,19.686 34.13,20.148 C35.642,19.686 37.014,19.042 38.19,18.188 C39.31,19.028 40.64,19.658 42.264,20.078 C42.502,19.644 42.95,18.958 43.314,18.622 C41.83,18.286 40.556,17.768 39.506,17.068 C40.85,15.696 41.83,13.904 42.404,11.566 L41.256,11.104 L40.948,11.174 L33.794,11.174 L33.794,9.746 C36.86,9.62 40.178,9.284 42.628,8.556 L41.256,7.212 C39.1,7.856 35.39,8.192 32.072,8.29 L32.072,12.056 C32.072,14.198 31.96,17.208 30.56,19.252 C30.98,19.434 31.722,19.952 32.03,20.26 Z M38.162,15.976 C37.266,15.08 36.58,14.016 36.09,12.784 L40.22,12.784 C39.758,14.03 39.044,15.094 38.162,15.976 Z M45.4,13.414 C45.876,12.644 46.282,11.622 46.618,10.516 L47.85,10.516 C47.654,11.076 47.444,11.608 47.248,12 L48.452,12.406 C48.872,11.622 49.348,10.418 49.684,9.34 L48.662,9.032 L48.424,9.102 L46.996,9.102 C47.122,8.542 47.234,7.996 47.332,7.436 L45.848,7.156 C45.554,9.13 45.036,11.118 44.238,12.378 C44.56,12.616 45.162,13.162 45.4,13.414 Z M57.524,12.826 L57.524,11.58 L53.982,11.58 L53.982,10.922 L56.628,10.922 L56.628,8.024 L53.982,8.024 L53.982,7.156 L52.498,7.156 L52.498,8.024 L49.824,8.024 L49.824,10.922 L52.498,10.922 L52.498,11.58 L49.124,11.58 L49.124,12.826 L57.524,12.826 Z M52.498,9.844 L51.168,9.844 L51.168,9.102 L52.498,9.102 L52.498,9.844 Z M55.2,9.844 L53.982,9.844 L53.982,9.102 L55.2,9.102 L55.2,9.844 Z M46.058,20.232 C46.296,19.924 46.73,19.56 49.194,17.67 C49.026,17.348 48.83,16.746 48.746,16.312 L47.556,17.194 L47.556,12.28 L46.1,12.28 L46.1,17.558 C46.1,18.342 45.54,18.944 45.218,19.21 C45.47,19.434 45.904,19.938 46.058,20.232 Z M51.224,17.726 L51.224,14.576 L55.074,14.576 L55.074,17.726 L56.656,17.726 L56.656,13.302 L49.698,13.302 L49.698,17.726 L51.224,17.726 Z M49.67,20.302 C53.156,19.518 53.954,17.992 53.954,16.368 L53.954,14.982 L52.428,14.982 L52.428,16.312 C52.428,17.39 51.98,18.37 48.788,19.014 C49.068,19.294 49.516,19.952 49.67,20.302 Z M56.586,20.232 L57.342,19.098 C56.656,18.608 55.284,17.978 54.262,17.614 L53.548,18.636 C54.584,19.056 55.928,19.742 56.586,20.232 Z M65,15.472 C65.98,15.472 66.792,14.66 66.792,13.68 C66.792,12.7 65.98,11.888 65,11.888 C64.02,11.888 63.208,12.7 63.208,13.68 C63.208,14.66 64.02,15.472 65,15.472 Z M75.346,19 L75.346,14.8 L79.028,14.8 L79.028,13.064 L75.346,13.064 L75.346,10.362 L79.658,10.362 L79.658,8.626 L73.274,8.626 L73.274,19 L75.346,19 Z M84.446,19.196 C85.412,19.196 86.406,18.86 87.176,18.328 L86.476,17.068 C85.916,17.418 85.356,17.614 84.712,17.614 C83.55,17.614 82.71,16.942 82.542,15.654 L87.372,15.654 C87.428,15.472 87.47,15.094 87.47,14.702 C87.47,12.546 86.35,10.964 84.194,10.964 C82.332,10.964 80.54,12.546 80.54,15.08 C80.54,17.67 82.248,19.196 84.446,19.196 Z M85.706,14.282 L82.514,14.282 C82.668,13.148 83.396,12.56 84.222,12.56 C85.23,12.56 85.706,13.232 85.706,14.282 Z M92.58,19.196 C93.546,19.196 94.54,18.86 95.31,18.328 L94.61,17.068 C94.05,17.418 93.49,17.614 92.846,17.614 C91.684,17.614 90.844,16.942 90.676,15.654 L95.506,15.654 C95.562,15.472 95.604,15.094 95.604,14.702 C95.604,12.546 94.484,10.964 92.328,10.964 C90.466,10.964 88.674,12.546 88.674,15.08 C88.674,17.67 90.382,19.196 92.58,19.196 Z M93.84,14.282 L90.648,14.282 C90.802,13.148 91.53,12.56 92.356,12.56 C93.364,12.56 93.84,13.232 93.84,14.282 Z M100.056,19.196 C100.868,19.196 101.652,18.748 102.226,18.188 L102.282,18.188 L102.436,19 L104.102,19 L104.102,7.828 L102.058,7.828 L102.058,10.586 L102.128,11.818 C101.568,11.3 101.022,10.964 100.14,10.964 C98.446,10.964 96.85,12.532 96.85,15.08 C96.85,17.656 98.11,19.196 100.056,19.196 Z M100.588,17.502 C99.552,17.502 98.964,16.69 98.964,15.066 C98.964,13.498 99.706,12.658 100.588,12.658 C101.078,12.658 101.582,12.812 102.058,13.246 L102.058,16.69 C101.596,17.278 101.134,17.502 100.588,17.502 Z M110.248,19.196 C111.97,19.196 113.58,17.642 113.58,14.94 C113.58,12.546 112.418,10.964 110.486,10.964 C109.716,10.964 108.932,11.342 108.316,11.902 L108.372,10.642 L108.372,7.828 L106.314,7.828 L106.314,19 L107.924,19 L108.106,18.174 L108.162,18.174 C108.792,18.832 109.548,19.196 110.248,19.196 Z M109.786,17.502 C109.366,17.502 108.862,17.348 108.372,16.914 L108.372,13.47 C108.904,12.924 109.38,12.658 109.912,12.658 C110.99,12.658 111.466,13.484 111.466,14.982 C111.466,16.69 110.738,17.502 109.786,17.502 Z M117.066,19.196 C117.962,19.196 118.746,18.748 119.432,18.16 L119.488,18.16 L119.628,19 L121.308,19 L121.308,14.422 C121.308,12.154 120.286,10.964 118.298,10.964 C117.066,10.964 115.946,11.426 115.022,12 L115.764,13.358 C116.492,12.938 117.192,12.616 117.92,12.616 C118.886,12.616 119.222,13.204 119.264,13.974 C116.1,14.31 114.742,15.192 114.742,16.872 C114.742,18.202 115.666,19.196 117.066,19.196 Z M117.738,17.586 C117.136,17.586 116.702,17.32 116.702,16.704 C116.702,16.004 117.346,15.472 119.264,15.234 L119.264,16.816 C118.76,17.306 118.326,17.586 117.738,17.586 Z M126.74,19.196 C127.608,19.196 128.56,18.902 129.316,18.244 L128.49,16.886 C128.056,17.25 127.524,17.516 126.964,17.516 C125.844,17.516 125.018,16.564 125.018,15.08 C125.018,13.61 125.83,12.644 127.034,12.644 C127.468,12.644 127.832,12.826 128.224,13.162 L129.204,11.832 C128.63,11.342 127.888,10.964 126.922,10.964 C124.794,10.964 122.918,12.476 122.918,15.08 C122.918,17.684 124.57,19.196 126.74,19.196 Z M132.816,19 L132.816,17.012 L133.922,15.752 L135.826,19 L138.052,19 L135.112,14.394 L137.8,11.16 L135.546,11.16 L132.872,14.534 L132.816,14.534 L132.816,7.828 L130.786,7.828 L130.786,19 L132.816,19 Z"/>
    <g transform="translate(3 3)">
      <path fill="#FFF" d="M6.2795157,-2.5369995e-16 L15.7204843,2.5369995e-16 C17.9040087,-1.47406977e-16 18.6958074,0.227350227 19.4940713,0.654266427 C20.2923352,1.08118263 20.9188174,1.7076648 21.3457336,2.50592869 C21.7726498,3.30419258 22,4.09599129 22,6.2795157 L22,15.7204843 C22,17.9040087 21.7726498,18.6958074 21.3457336,19.4940713 C20.9188174,20.2923352 20.2923352,20.9188174 19.4940713,21.3457336 C18.6958074,21.7726498 17.9040087,22 15.7204843,22 L6.2795157,22 C4.09599129,22 3.30419258,21.7726498 2.50592869,21.3457336 C1.7076648,20.9188174 1.08118263,20.2923352 0.654266427,19.4940713 C0.227350227,18.6958074 9.82713181e-17,17.9040087 -1.691333e-16,15.7204843 L1.691333e-16,6.2795157 C-9.82713181e-17,4.09599129 0.227350227,3.30419258 0.654266427,2.50592869 C1.08118263,1.7076648 1.7076648,1.08118263 2.50592869,0.654266427 C3.30419258,0.227350227 4.09599129,1.47406977e-16 6.2795157,-2.5369995e-16 Z"/>
      <path fill="#303438" d="M8.51277756,11.4959941 L9.38906262,12.2251398 C9.48299505,12.3032998 9.50278796,12.439751 9.43493464,12.5413788 L8.55864958,13.853841 C8.4853993,13.9635521 8.33707977,13.9931095 8.22736863,13.9198592 C8.2012341,13.9024101 8.17879953,13.8799755 8.16135042,13.853841 L7.28506536,12.5413788 C7.21721204,12.439751 7.23700495,12.3032998 7.33093738,12.2251398 L8.20722244,11.4959941 C8.29575408,11.4223281 8.42424592,11.4223281 8.51277756,11.4959941 Z M3.98095238,4.21386984 C6.17957167,4.21386984 7.96190476,5.99353796 7.96190476,8.18886984 C7.96190476,10.3842017 6.17957167,12.1638698 3.98095238,12.1638698 C1.78233309,12.1638698 0,10.3842017 0,8.18886984 C0,5.99353796 1.78233309,4.21386984 3.98095238,4.21386984 Z M12.7390476,4.21386984 C14.9376669,4.21386984 16.72,5.99353796 16.72,8.18886984 C16.72,10.3842017 14.9376669,12.1638698 12.7390476,12.1638698 C10.5404283,12.1638698 8.75809524,10.3842017 8.75809524,8.18886984 C8.75809524,5.99353796 10.5404283,4.21386984 12.7390476,4.21386984 Z M3.98095238,5.40636984 C2.44191888,5.40636984 1.19428571,6.65213753 1.19428571,8.18886984 C1.19428571,9.72560216 2.44191888,10.9713698 3.98095238,10.9713698 C5.51998588,10.9713698 6.76761905,9.72560216 6.76761905,8.18886984 C6.76761905,6.65213753 5.51998588,5.40636984 3.98095238,5.40636984 Z M12.7390476,5.40636984 C11.2000141,5.40636984 9.95238095,6.65213753 9.95238095,8.18886984 C9.95238095,9.72560216 11.2000141,10.9713698 12.7390476,10.9713698 C14.2780811,10.9713698 15.5257143,9.72560216 15.5257143,8.18886984 C15.5257143,6.65213753 14.2780811,5.40636984 12.7390476,5.40636984 Z M13.8722709,0.0508842054 C14.1685128,-0.07909422 14.5160329,0.0506132348 14.6535516,0.345004245 C14.7929802,0.643484018 14.6637347,0.99822544 14.3648737,1.13734139 L14.3648737,1.13734139 L8.59275848,3.82418621 L8.58044544,3.82975252 C8.51273302,3.85946187 8.44234156,3.87560396 8.3723912,3.87931328 C8.36016464,3.87940601 8.34742674,3.87996249 8.33465487,3.8801083 C8.32134435,3.87996249 8.30860644,3.87940601 8.29592171,3.87844584 C8.22642952,3.87560396 8.15603807,3.85946187 8.08832564,3.82975252 L8.07601261,3.82418621 L2.30389739,1.13734139 C2.00503634,0.99822544 1.87579085,0.643484018 2.01521951,0.345004245 C2.15273818,0.0506132348 2.50025832,-0.07909422 2.79650018,0.0508842054 L2.80881322,0.0564505089 L8.334,2.628 L13.8599579,0.0564505089 Z" transform="translate(2.684 4.224)"/>
    </g>
  </g>
</svg>

<svg xmlns="http://www.w3.org/2000/svg" width="144" height="28" viewBox="0 0 144 28"><g fill="none" fill-rule="evenodd"><rect width="144" height="28" fill="#303438" rx="8"/><path fill="#E0E4E8" fill-rule="nonzero" d="M32.03 20.26c1.372-2.016 1.708-5.152 1.75-7.476h.672c.602 1.68 1.4 3.094 2.45 4.228-1.078.742-2.352 1.288-3.724 1.624a6.55 6.55 0 0 1 .952 1.512c1.512-.462 2.884-1.106 4.06-1.96 1.12.84 2.45 1.47 4.074 1.89.238-.434.686-1.12 1.05-1.456-1.484-.336-2.758-.854-3.808-1.554 1.344-1.372 2.324-3.164 2.898-5.502l-1.148-.462-.308.07h-7.154V9.746c3.066-.126 6.384-.462 8.834-1.19l-1.372-1.344c-2.156.644-5.866.98-9.184 1.078v3.766c0 2.142-.112 5.152-1.512 7.196.42.182 1.162.7 1.47 1.008zm6.132-4.284c-.896-.896-1.582-1.96-2.072-3.192h4.13a8.84 8.84 0 0 1-2.058 3.192zm7.238-2.562c.476-.77.882-1.792 1.218-2.898h1.232c-.196.56-.406 1.092-.602 1.484l1.204.406c.42-.784.896-1.988 1.232-3.066l-1.022-.308-.238.07h-1.428c.126-.56.238-1.106.336-1.666l-1.484-.28c-.294 1.974-.812 3.962-1.61 5.222.322.238.924.784 1.162 1.036zm12.124-.588V11.58h-3.542v-.658h2.646V8.024h-2.646v-.868h-1.484v.868h-2.674v2.898h2.674v.658h-3.374v1.246h8.4zm-5.026-2.982h-1.33v-.742h1.33v.742zm2.702 0h-1.218v-.742H55.2v.742zm-9.142 10.388c.238-.308.672-.672 3.136-2.562-.168-.322-.364-.924-.448-1.358l-1.19.882V12.28H46.1v5.278c0 .784-.56 1.386-.882 1.652.252.224.686.728.84 1.022zm5.166-2.506v-3.15h3.85v3.15h1.582v-4.424h-6.958v4.424h1.526zm-1.554 2.576c3.486-.784 4.284-2.31 4.284-3.934v-1.386h-1.526v1.33c0 1.078-.448 2.058-3.64 2.702.28.28.728.938.882 1.288zm6.916-.07l.756-1.134c-.686-.49-2.058-1.12-3.08-1.484l-.714 1.022c1.036.42 2.38 1.106 3.038 1.596zM65 15.472c.98 0 1.792-.812 1.792-1.792S65.98 11.888 65 11.888s-1.792.812-1.792 1.792.812 1.792 1.792 1.792zM75.346 19v-4.2h3.682v-1.736h-3.682v-2.702h4.312V8.626h-6.384V19h2.072zm9.1.196c.966 0 1.96-.336 2.73-.868l-.7-1.26c-.56.35-1.12.546-1.764.546-1.162 0-2.002-.672-2.17-1.96h4.83c.056-.182.098-.56.098-.952 0-2.156-1.12-3.738-3.276-3.738-1.862 0-3.654 1.582-3.654 4.116 0 2.59 1.708 4.116 3.906 4.116zm1.26-4.914h-3.192c.154-1.134.882-1.722 1.708-1.722 1.008 0 1.484.672 1.484 1.722zm6.874 4.914c.966 0 1.96-.336 2.73-.868l-.7-1.26c-.56.35-1.12.546-1.764.546-1.162 0-2.002-.672-2.17-1.96h4.83c.056-.182.098-.56.098-.952 0-2.156-1.12-3.738-3.276-3.738-1.862 0-3.654 1.582-3.654 4.116 0 2.59 1.708 4.116 3.906 4.116zm1.26-4.914h-3.192c.154-1.134.882-1.722 1.708-1.722 1.008 0 1.484.672 1.484 1.722zm6.216 4.914c.812 0 1.596-.448 2.17-1.008h.056l.154.812h1.666V7.828h-2.044v2.758l.07 1.232c-.56-.518-1.106-.854-1.988-.854-1.694 0-3.29 1.568-3.29 4.116 0 2.576 1.26 4.116 3.206 4.116zm.532-1.694c-1.036 0-1.624-.812-1.624-2.436 0-1.568.742-2.408 1.624-2.408.49 0 .994.154 1.47.588v3.444c-.462.588-.924.812-1.47.812zm9.66 1.694c1.722 0 3.332-1.554 3.332-4.256 0-2.394-1.162-3.976-3.094-3.976-.77 0-1.554.378-2.17.938l.056-1.26V7.828h-2.058V19h1.61l.182-.826h.056c.63.658 1.386 1.022 2.086 1.022zm-.462-1.694c-.42 0-.924-.154-1.414-.588V13.47c.532-.546 1.008-.812 1.54-.812 1.078 0 1.554.826 1.554 2.324 0 1.708-.728 2.52-1.68 2.52zm7.28 1.694c.896 0 1.68-.448 2.366-1.036h.056l.14.84h1.68v-4.578c0-2.268-1.022-3.458-3.01-3.458-1.232 0-2.352.462-3.276 1.036l.742 1.358c.728-.42 1.428-.742 2.156-.742.966 0 1.302.588 1.344 1.358-3.164.336-4.522 1.218-4.522 2.898 0 1.33.924 2.324 2.324 2.324zm.672-1.61c-.602 0-1.036-.266-1.036-.882 0-.7.644-1.232 2.562-1.47v1.582c-.504.49-.938.77-1.526.77zm9.002 1.61c.868 0 1.82-.294 2.576-.952l-.826-1.358c-.434.364-.966.63-1.526.63-1.12 0-1.946-.952-1.946-2.436 0-1.47.812-2.436 2.016-2.436.434 0 .798.182 1.19.518l.98-1.33c-.574-.49-1.316-.868-2.282-.868-2.128 0-4.004 1.512-4.004 4.116 0 2.604 1.652 4.116 3.822 4.116zm6.076-.196v-1.988l1.106-1.26L135.826 19h2.226l-2.94-4.606 2.688-3.234h-2.254l-2.674 3.374h-.056V7.828h-2.03V19h2.03z"/><path fill="#FFF" d="M9.28 3h9.44c2.184 0 2.976.227 3.774.654a4.45 4.45 0 0 1 1.852 1.852c.427.798.654 1.59.654 3.774v9.44c0 2.184-.227 2.976-.654 3.774a4.45 4.45 0 0 1-1.852 1.852c-.798.427-1.59.654-3.774.654H9.28c-2.184 0-2.976-.227-3.774-.654a4.45 4.45 0 0 1-1.852-1.852C3.227 21.696 3 20.904 3 18.72V9.28c0-2.184.227-2.976.654-3.774a4.45 4.45 0 0 1 1.852-1.852C6.304 3.227 7.096 3 9.28 3z"/><path fill="#303438" d="M14.197 18.72l.876.73a.239.239 0 0 1 .046.315l-.876 1.313a.239.239 0 0 1-.398 0l-.876-1.313a.239.239 0 0 1 .046-.316l.876-.729a.239.239 0 0 1 .306 0zm-4.532-7.282a3.978 3.978 0 0 1 3.98 3.975 3.978 3.978 0 0 1-3.98 3.975 3.978 3.978 0 0 1-3.981-3.975 3.978 3.978 0 0 1 3.981-3.975zm8.758 0a3.978 3.978 0 0 1 3.981 3.975 3.978 3.978 0 0 1-3.981 3.975 3.978 3.978 0 0 1-3.98-3.975 3.978 3.978 0 0 1 3.98-3.975zM9.665 12.63a2.785 2.785 0 0 0-2.787 2.783 2.785 2.785 0 0 0 2.787 2.782 2.785 2.785 0 0 0 2.787-2.782 2.785 2.785 0 0 0-2.787-2.783zm8.758 0a2.785 2.785 0 0 0-2.787 2.783 2.785 2.785 0 0 0 2.787 2.782 2.785 2.785 0 0 0 2.787-2.782 2.785 2.785 0 0 0-2.787-2.783zm1.133-5.355a.598.598 0 0 1 .493 1.086l-5.772 2.687-.013.006a.595.595 0 0 1-.208.05h-.037c-.014 0-.026 0-.04-.002a.575.575 0 0 1-.207-.048l-.012-.006-5.772-2.687a.596.596 0 0 1 .493-1.086l.012.005 5.525 2.572 5.526-2.572z"/></g></svg>
